!!!COM: Mozart, Wolfgang Amadeus
!!!OTL: Musikalische Würfelspiele, Kontre-Tänze
!!!SCA: K<sup>6</sup> Anh. C30.01 (K<sup>3</sup> Anh. 294d)
**kern	**kern
*staff2	*staff2
*clefF4	*clefG2
*M2/4	*M2/4
*MM110	*MM110
*>[A,A1,A,A2,B]	*>[A,A1,A,A2,B]
*>norep[A,A2,B]	*>norep[A,A2,B]
*>A	*>A
=7	=7
4C	8cc
.	8cc
4C	8ee
.	8ee
=45	=45
16C	8gg
16D	.
16C	8ccc
16BB	.
16C	8gg
16D	.
16E	8ee
16C	.
=57	=57
8G	8ff
16GG	8ff
16AA	.
16BB	8dd
16C	.
16D	8dd
16BB	.
=158	=158
4C	16cc
.	16dd
.	16ee
.	16ff
4CC	16gg
.	16ee
.	16dd
.	16cc
=117	=117
16D	8aa
16A	.
16F#	4ff#
16A	.
16D	.
16A	.
16F#	8dd
16A	.
=39	=39
4BB 4G	16gg
.	16ff#
.	16ee
.	16dd
4r	16cc
.	16b
.	16a
.	16g
=132	=132
16C	8ee
16A	.
16F#	4cc
16A	.
16AA	.
16D	.
16C	16a
16D	16f#
=102	=102
*>A1	*>A1
16BB	4g 4b 4gg
16GG	.
16BB	.
16D	.
16G	4r
16F	.
16E	.
16D	.
=102:|!	=102:|!
*>A2	*>A2
16BB	4g 4b 4gg
16GG	.
16BB	.
16D	.
16GG	4r
16AA	.
16BB	.
16C#	.
=155||	=155||
*>B	*>B
16D	4aa
16F#	.
16A	.
16F#	.
8D	16gg
.	16ff#
8C	16ee
.	16dd
=104	=104
4G	8gg
.	16ddd
.	16bb
4GG	4gg
=72	=72
16C	4ee
16E	.
16G	.
16E	.
16C	8cc
16E	.
16G	8cc
16E	.
=9	=9
4GG	8dd
.	8b
16G	4g
16F	.
16E	.
16D	.
=75	=75
16C	4cc
16GG	.
16AA	.
16BB	.
16C	8cc
16GG	.
16AA	8cc
16BB	.
=101	=101
16C	8gg
16G	.
16E	4ee
16G	.
16C	.
16G	.
16E	8cc
16G	.
=154	=154
4G	8ff
.	8dd
4GG	8cc
.	8b
=20	=20
4C	4cc
4CC	4c
==	==
*-	*-
